X:639
T:Där satt en gubbe
C:Okänd
R:Långdans
Z:Patrik Månsson, 208-10-08
O:Skåne
N:Not från allspelslåtarna till Degeberga 2005
M:3/4
L:1/8
K:D

D DD |: G2 G2 DD | G2 G2 d2 | B2 BB AB |[1 G3 D DD :|[2 G2 z2 B2 ]|
c2 c2 A2 | B2 B2 G2 | c2 cc AA | B2 AA GG | c2 cc AA | B2 B2 g2 | d2 dB dA  | G2 z ||

(:musicend:)

(:music:)
